X:1
T:Donna, quando pietosa
T:Jacques Arcadelt (1507-1568)
T:Donna, quando pietosa
T:Il vero secondo libro di madrigali, 1539 (No. 24)
T:Copyright © 
T:Copyright © 
T:Copyright © 
T:Copyright © 
C:Jacques Arcadelt (1507-1568)
Z:Copyright ©
%%score [ 1 2 3 4 ]
L:1/8
M:2/2
K:C
V:1 treble nm="Soprano" snm="S."
V:2 treble nm="Alto" snm="A."
V:3 treble-8 transpose=-12 nm="Tenor" snm="T."
V:4 bass nm="Bass" snm="B."
V:1
 [Cc]2 ||[M:2/2] E8 | E4 E4 | F4 F4 | E4 E4 | z2 E4 F2- | F2 G2 A2 B2 | c4 B2 G2 | A2 B2- BA A2- | %9
w: |Don-|na, quan-|do pie-|to- sa|Ver me|_ gli~oc- chi vol-|ge- te in|lie- ti _ _ gi-|
 A2 G2 A2 z A | AAGF E2 z F | F2 F2 E2 D2 | C2 C2 D2 E2- | ED D4"^#" ^C2 | D2 D2 F3 G | %15
w: * * ri, Sgom-|brar sen- to dal cor, sgom-|brar sen- to dal|cor noi- a~e mar-|* * ti- *|ri. Ne mai _|
 A3 B c2 B2- | BA A4"^#" ^G2 | A8 | z2 A4 G2 | A8 | G2 F2 E4 | D4 z2 F2 | F2 F2 E4- | E2 C2 D3 E | %24
w: vi- * ta gio-|* * io- *|sa,|A- mant'|eb-|be quant' i-|o; Ma|quan- do poi|_ tur- ba- *|
 F2 E4 D2 | E8- | E4 z2 B2 | c3 B A2 G2 | F6 E2 | z2 B2 c3 B | A2 G2 F4 | E4 z2 E2 | E2 E2 F4- | %33
w: to veg- *|gio|_ E|pien di sdegn' è'l|vol- to,|Di fred- do|ghiacc' in- vol-|to, Sen-|to mo- ren-|
 F4 E4 | F2 E4 D2 | E4 E4 | z2 G4"^#" ^F2 | G2 G2- GG G2 | A2 G2 A4 | G8 | z2 G2 G2 G2 | A2 G4 E2 | %42
w: * do~il|cor strug- *|ger- si;|Hor' vo-|i di- * te- mi|qual di duo-|i|Vo- le- te|dar- mi o|
 F3 E F2 G2 | E4 F4 | E8- | E4 z2 G2 | A2 B2 c3 B | A2 G2 F4 | E4 z2 G2 | F2 E4 D2 | E8- | %51
w: vit' o mort' in-|vi- *|ta,|_ Poi|che mi vi _|_ mos- tra-|te hor'|liet', hor tris-|ta,|
 E4 z2 G2 | A2 B2 c3 B | A2 G2 F4 | E4 z2 G2 | F2 E4 D2 |"^rit." E8- | E8- | %58
w: _ Poi|che mi vi _|_ mos- tra-|te hor'|liet', hor tris-|ta.|_|
"^DSH 2018-10-26" !fermata!E8 |] %59
w: |
V:2
 [F,G]2 ||[M:2/2] B,8 | C4 C4 | D4 D4 | B,8 | C2 C4 D2- | D2 E2 F2 G2- | G2"^#" ^F2 G2 D2 | %8
w: |Don-|na, quan-|do pie-|to-|sa Ver me|_ gli~oc- chi vol-|* ge- te in|
 !courtesy!=F2 G2 E2 F2- | F2 ED C2 z F | FFED C2 z D | C2 C2 C2 A,2 | A,2 C2 _B,4- | %13
w: lie- ti gi- *|* * * ri, Sgom-|brar sen- to dal cor, sgom-|brar sen- to dal|cor noi- a~e|
 B,2 G,2 A,2 A,2 | z2 A,2 D2 D2 | C6 D2 | E2 F4 ED | C2 D2 E4 | z2 E2 D2 E2 | C4 F4 | %20
w: _ mar- ti- ri.|Ne mai vi-|ta gio-|io- * * *|* * sa,|A- mant' eb-|be quant'|
 E2 D4"^#" ^C2 | D4 z2 D2 | D2 D2 B,4 | C4 A,3 G, | A,B, C4 B,A, | G,8- | G,4 z2 E2 | E3 D C2 B,2 | %28
w: i- * *|o; Ma|quan- do poi|tur- ba- *|to _ veg- * *|gio|_ E|pien di sdegn' è'l|
 A,2 A,2 z2 C2 | B,2 E4 G2 | F2 E2 D3 C | B,2 B,2 z2 C2 | C2 C2 D4- | D4 C2 G,2 | F,2 G,2 A,4 | %35
w: vol- to, Di|fred- do, di|fred- do ghiacc' in-|vol- to, Sen-|to mo- ren-|* do il|cor strug- ger-|
 B,4 z2 B,2 | C2 E4 C2 | D2 E2- EE E2 | D2 E2 F4 | E8 | z2 G,4 C2- | C2 B,2 E2 E2 | D2 D2 D2 D2- | %43
w: si; Hor'|vo- * *|i di- * te- mi|qual di duo-|i|Vo- le-|* te dar- mi~o|vit' o mort' in-|
 DC C4 B,2 | C4 z4 | C4 D2 E2- | E2 D2 E2 C2 | D2 E4 D2 | E4 z2 D2 | C2 B,2 A,4 | G,4 z2 B,2- | %51
w: * * vi- *|ta,|Poi che mi|_ vi mos- tra-||te hor'|liet', hor tris-|ta, Poi|
 B,2 C2 D2 E2- | E2 D2 E2 C2 | D2 E4 D2 | E4 z2 D2 | C2 B,2- B,A, A,2- | A,2"^#" ^G,2 A,2 A,2 | %57
w: _ che mi vi|_ mos- tra- *||te hor'|liet', hor _ _ tris-|* * ta, hor'|
"^#" ^G,2 B,2 C4 | !fermata!B,8 |] %59
w: liet, hor tris-|ta.|
V:3
 [Ce]2 ||[M:2/2] G8 | G4 A4 | A4 _B2 A2- | A2"^#" ^G"^#"^F"^#" G4 | A4 z2 A2- | A2 c2- cd e2- | %7
w: |Don-|na, quan-|do pie- to-||sa Ver|_ me _ gli~oc- chi|
 e2 c2 d2 B2 | z2 B2 c2 c2 | d4 e2 z d | cccA A2 z A | A2 A2 G2 F2 | E2 A2 F2 G2- | GFED E4 | %14
w: _ vol- ge- te|in lie- ti|gi- ri, Sgom-|brar sen- to dal cor, sgom-|brar sen- to dal|cor noi- a~e mar-|* * * * ti-|
 D4 z2 D2 | F3 G A2 B2 | c2 d2 B4 | A2 d4 cB | c2 c2 B2 c2- | cBAG F3 E | C2 D2 A4 | D4 z2 A2 | %22
w: ri. Ne|mai _ _ vi-|ta gio- io-||sa, A- mant' eb-|* * * * be _|_ quant' i-|o; Ma|
 A2 A2 G4 | G2 A2 F4- | F2 G2 A4 | B4 z2 B2 | c3 B A2"^#" ^G2 | A2 A2 z2 e2 | d2 c2 BA A2- | %29
w: quan- do poi|_ tur- ba-|* to veg-|gio E|pien di sdegn' è'l|vol- to, Di|fred- do ghiacc' in- *|
 A2"^#" ^G2 A2 z !courtesy!=G | c2 c2 A2 A2 | G2 G2 z2 G2 | G2 G2 _B4- | B4 G2 c2 | %34
w: * vol- to, di|fred- do ghiacc' in-|vol- to, Sen-|to mo- ren-|* do~il cor|
 A2 c4 !courtesy!=BA | G4 z2 G2 | A2 B2 c4 | B2 B2- BB B2 | A2 B2 c2 d2 | B2 G4 c2- | c2 B2 e4 | %41
w: strug- ger- * *|si; Hor'|vo- * *|i di- * te- mi|qual di duo- *|i Vo- le-|* te dar-|
 d4 z2 c2 | A3 G A2 B2 | A2 G4 F2 | G4 z2 G2- | G2 A2 B2 c2- | c2 B2 A3 G | F2 E2 z4 | %48
w: mi o|vit' o mort' in-|vi- * *|ta, Poi|_ che mi vi|_ mos- tra- *|* te|
 z2 c2 c2 B2 | A2 G2 A4 | B4 z2 G2- | G2 A2 B2 c2- | c2 B2 A3 G | F2 E2 z4 | z2 c2 c2 B2 | %55
w: hor' liet', hor|tris- * *|ta, Poi|_ che mi vi|_ mos- tra- *|* te|hor' liet', hor|
 A2 G2 A4 | B4 c2 c2 | B2"^#" ^G2 A4 |"^#" !fermata!^G8 |] %59
w: tris- * *|* ta, hor'|liet', hor tris-|ta.|
V:4
 [G,,C]2 ||[M:2/2] E,8 | C,4 A,,4 | D,4 D,4 | E,8 | A,,2 A,,4 D,2- | D,2 C,2 F,2 E,2 | A,4 G,4 | %8
w: |Don-|na, quan-|do pie-|to-|sa Ver me|_ gli~oc- chi vol-|ge- te|
 z2 G,2 A,2 A,2 |"^b" _B,4 A,2 z D, | F,F,C,D, A,,2 z D, | F,2 F,2 C,2 D,2 | A,,2 A,,2 _B,,2 G,,2 | %13
w: in lie- ti|gi- ri, Sgom-|brar sen- to dal cor, sgom-|brar sen- to dal|cor noi- a~e mar-|
"^b" _B,,4 A,,4 | D,8 | z8 | z2 D,2 D,2 E,2 | F,2 D,2 A,4 | A,4 z4 | z8 | z8 | z2 D,2 D,4- | %22
w: ti- *|ri.||Ne mai vi-|ta gio- io-|sa,|||Ma quan-|
 D,2 D,2 E,4 | C,2 A,,2 D,4- | D,2 C,2 F,4 | E,4 z2 E,2 | E,2 C,2 D,2 E,2 | A,,2 A,,2 z2 E,2 | %28
w: * do poi|_ tur- ba-|* to veg-|gio E|pien di sdegn' è'l|vol- to, Di|
 F,3 E, D,2 C,2 | D,2 E,2 A,,2 E,2 | F,2 C,2 D,2 D,2 | E,2 E,2 z2 C,2 | C,2 C,2 _B,,4- | B,,4 C,4 | %34
w: fred- do ghiacc' in|vol- * to, di|fred- do ghiacc' in-|vol- to, Sen-|to mo- ren-|* do~il|
 D,2 C,2 F,4 | E,8 | z2 E,2 A,4 | G,2 E,2- E,E, E,2 | F,2 E,4 D,2 | E,4 z2 C,2 | G,6 E,2 | %41
w: cor strug- ger-|si;|Hor' vo-|i di- * te- mi|qual di duo-|i Vo-|le- te|
 F,2 G,2 C,2 C,2 | D,6 G,,2 | C,4 D,4 | C,8- | C,4 z4 | z8 | z2 G,2 A,2 B,2 | C3 B, A,2 G,2 | %49
w: dar- mi~o vit' o|mort' in|vi- *|ta,|_||Poi che mi|vi mos- tra- te~hor'|
 A,2 E,2 F,4 | E,8 | z8 | z8 | z2 G,2 A,2 B,2 | C3 B, A,2 G,2 | A,2 E,2 F,4 | E,4 A,,2 A,,2 | %57
w: liet', hor tris-|ta,|||Poi che mi|vi mos- tra- te~hor'|liet', hor tris-|* ta, hor'|
 E,2 E,2 A,,4 | !fermata!E,8 |] %59
w: liet, hor tris-|ta.|

